src/assets/outline/VolumeSlash.svg

<svg width="24" height="24" viewBox="0 0 24 24"  xmlns="http://www.w3.org/2000/svg">
<path d="M7 17.7501H5C2.58 17.7501 1.25 16.4201 1.25 14.0001V10.0001C1.25 7.58012 2.58 6.25012 5 6.25012H6.43C6.66 6.25012 6.89 6.18011 7.09 6.06012L10.01 4.23012C11.47 3.32012 12.89 3.15012 14.01 3.77012C15.13 4.39012 15.74 5.68012 15.74 7.41012V8.37012C15.74 8.78012 15.4 9.12012 14.99 9.12012C14.58 9.12012 14.24 8.78012 14.24 8.37012V7.41012C14.24 6.27012 13.89 5.42012 13.28 5.09012C12.67 4.75012 11.77 4.90012 10.8 5.51012L7.88 7.33012C7.45 7.61012 6.94 7.75012 6.43 7.75012H5C3.42 7.75012 2.75 8.42012 2.75 10.0001V14.0001C2.75 15.5801 3.42 16.2501 5 16.2501H7C7.41 16.2501 7.75 16.5901 7.75 17.0001C7.75 17.4101 7.41 17.7501 7 17.7501Z" />
<path d="M12.5501 20.59C11.7601 20.59 10.8901 20.31 10.0201 19.76C9.67009 19.54 9.56009 19.08 9.78009 18.73C10.0001 18.38 10.4601 18.27 10.8101 18.49C11.7801 19.09 12.6801 19.25 13.2901 18.91C13.9001 18.57 14.2501 17.72 14.2501 16.59V12.95C14.2501 12.54 14.5901 12.2 15.0001 12.2C15.4101 12.2 15.7501 12.54 15.7501 12.95V16.59C15.7501 18.31 15.1301 19.61 14.0201 20.23C13.5701 20.47 13.0701 20.59 12.5501 20.59Z" />
<path d="M17.9998 16.7501C17.8398 16.7501 17.6898 16.7001 17.5498 16.6001C17.2198 16.3501 17.1498 15.8801 17.3998 15.5501C18.6598 13.8701 18.9298 11.6401 18.1198 9.71007C17.9598 9.33007 18.1398 8.89007 18.5198 8.73007C18.8998 8.57007 19.3398 8.75007 19.4998 9.13007C20.5198 11.5501 20.1698 14.3601 18.5998 16.4601C18.4498 16.6501 18.2298 16.7501 17.9998 16.7501Z" />
<path d="M19.8299 19.25C19.6699 19.25 19.5199 19.2 19.3799 19.1C19.0499 18.85 18.9799 18.38 19.2299 18.05C21.3699 15.2 21.8399 11.38 20.4599 8.08995C20.2999 7.70995 20.4799 7.26995 20.8599 7.10995C21.2499 6.94996 21.6799 7.12996 21.8399 7.50996C23.4299 11.29 22.8899 15.67 20.4299 18.95C20.2899 19.15 20.0599 19.25 19.8299 19.25Z" />
<path d="M1.99994 22.7499C1.80994 22.7499 1.61994 22.6799 1.46994 22.5299C1.17994 22.2399 1.17994 21.7599 1.46994 21.4699L21.4699 1.46994C21.7599 1.17994 22.2399 1.17994 22.5299 1.46994C22.8199 1.75994 22.8199 2.23994 22.5299 2.52994L2.52994 22.5299C2.37994 22.6799 2.18994 22.7499 1.99994 22.7499Z" />
</svg>

<?xml version="1.0" encoding="UTF-8"?>
<svg width="24" height="24" viewBox="0 0 24 24" xmlns="http://www.w3.org/2000/svg">
 <path d="m7 17.75h-2c-2.42 0-3.75-1.33-3.75-3.75v-4c0-2.42 1.33-3.75 3.75-3.75h1.43c0.23 0 0.46-0.07001 0.66-0.19l2.92-1.83c1.46-0.91 2.88-1.08 4-0.46s1.73 1.91 1.73 3.64v0.96c0 0.41-0.34 0.75-0.75 0.75s-0.75-0.34-0.75-0.75v-0.96c0-1.14-0.35-1.99-0.96-2.32-0.61-0.34-1.51-0.19-2.48 0.42l-2.92 1.82c-0.43 0.28-0.94 0.42-1.45 0.42h-1.43c-1.58 0-2.25 0.67-2.25 2.25v4c0 1.58 0.67 2.25 2.25 2.25h2c0.41 0 0.75 0.34 0.75 0.75s-0.34 0.75-0.75 0.75z"/>
 <path d="m12.55 20.59c-0.79 0-1.66-0.28-2.53-0.83-0.35001-0.22-0.46001-0.68-0.24001-1.03 0.22001-0.35 0.68001-0.46 1.03-0.24 0.97 0.6 1.87 0.76 2.48 0.42s0.96-1.19 0.96-2.32v-3.64c0-0.41 0.34-0.75 0.75-0.75s0.75 0.34 0.75 0.75v3.64c0 1.72-0.62 3.02-1.73 3.64-0.45 0.24-0.95 0.36-1.47 0.36z"/>
 <path d="m18 16.75c-0.16 0-0.31-0.05-0.45-0.15-0.33-0.25-0.4-0.72-0.15-1.05 1.26-1.68 1.53-3.91 0.72-5.84-0.16-0.38 0.02-0.82 0.4-0.98s0.82 0.02 0.98 0.4c1.02 2.42 0.67 5.23-0.9 7.33-0.15 0.19-0.37 0.29-0.6 0.29z"/>
 <path d="m19.83 19.25c-0.16 0-0.31-0.05-0.45-0.15-0.33-0.25-0.4-0.72-0.15-1.05 2.14-2.85 2.61-6.67 1.23-9.96-0.16-0.38 0.02-0.82 0.4-0.98 0.39-0.15999 0.82 0.02001 0.98 0.40001 1.59 3.78 1.05 8.16-1.41 11.44-0.14 0.2-0.37 0.3-0.6 0.3z"/>
 <path d="m1.9999 22.75c-0.19 0-0.38-0.07-0.53-0.22-0.29-0.29-0.29-0.77 0-1.06l20-20c0.29-0.29 0.77-0.29 1.06 0s0.29 0.77 0 1.06l-20 20c-0.15 0.15-0.34 0.22-0.53 0.22z"/>
</svg>
